!!!SOCIAL_FUNCTION: stomp dance songs
!!!PDT:	1943
!!!LING_GROUP: Muskogean
!!!LANG: Non-Tone
Specific Region: Oklahoma, California, Mississippi, Louisiana, Texas, Alabama
!!!REG: Southeast
!!!COM: Anon.
!!!OTL: Stomp Dance Song (b)
!!!ODT: <1933//
!!!MPN: Lapintabeseihoke [Kills it Himself, Sidney Wesley]
!!!MLC: Philadelphia, Mississippi, United States of America
!! Song was recorded in January 1933.
!!!AGN: monody
!!!AMT: irregular; simple quintuple
!!!RWG: Transcribed pitches, durations, and meters are only approximate.
**kern
*ICvox
*Imale
*clefF4
*k[f#c#g#d#a#]
*M2/4
*MM66
=1-
8G#
16G#
16G#
8G#
8G#
*M3/4
=2
8G#
16G#
16G#
8B
16G#
16F#
16G#
8.G#
*M2/4
=3
8G#
16G#
16G#
8G#
8G#
*M3/4
=4
16B
8G#
16G#
8B
16G#
16F#
8G#
16G#
16r
*M2/4
=5
8G#
16G#
16G#
8G#
16G#
16r
*M3/4
=6
8G#
16G#
16G#
8.B
16G#
8B
16B
16r
*M2/4
=7
8G#
16G#
16G#
8G#
16G#
16r
*M3/4
=8
8G#
16G#
16G#
8B
8G#
16G#
16G#
8r
*M2/4
=9
8G#
16G#
16G#
8G#
16G#
16r
*M3/4
=10
16G#
8G#
16G#
8B
16G#
16F#
16G#
8G#
16r
*M2/4
=11
8G#
16G#
16G#
8G#
16G#
16r
*M3/4
=12
8c#
16c#
16B
8B
16G#
16F#
16G#
16G#
8r
*M2/4
=13
8G#
16G#
16G#
8G#
16G#
16r
*M3/4
=14
8G#
16G#
16G#
8B
16G#
16F#
16G#
8G#
16r
*M2/4
=15
8G#
16G#
16G#
8G#
8G#
*M3/4
=16
8G#
16G#
16G#
8B
16G#
16F#
8G#
16G#
16r
*M2/4
=17
8G#
16G#
16G#
8G#
8G#
*M3/4
=18
8G#
16G#
16G#
8.B
16G#
8B
16B
16r
*M2/4
=19
8G#
16G#
16G#
8G#
16G#
16r
*M3/4
=20
8G#
16G#
16G#
8B
16G#
16F#
8G#
16G#
16r
*M2/4
=21
8G#
16G#
16G#
8G#
16G#
16r
*M3/4
=22
16B
8G#
16G#
8B
16G#
16F#
8G#
16G#
16r
*M2/4
=23
8G#
16G#
16G#
8G#
16G#
16r
*M3/4
=24
16B
8G#
16G#
8B
16G#
16F#
16G#
8G#
16r
*M2/4
=25
8G#
16G#
16G#
8G#
16G#
32r
32G#
=26
4G#
8G#
8r
==
*-
!!!CNT: Choctaw
!!!TXO: Choctaw
!!!OCY: United States
!!!OCL: Frances Densmore
!!!YOR: Frances Densmore, "Choctaw Music"
!!!YOR: Bulletin 136, page 162, No. 45
!!!PPR: Smithsonian Institution, Bureau of American Ethnology
!!!PPR: Government Printing Office
!!!PDT: 1943
!!!PPP: Washington, DC, United States of America
!!!YEC: Electronic Copyright 2000 David Huron
!!!YER: August 2000
!!!YEN: United States of America
!!!ENC: David Huron
!!!RDT: August 28, 2000
!!!EEV: Release 1.0
!!!AIN: vox
